X:1
T:His Way with Thee
T:Cyrus Silvester Nusbaum, 1898
T:His Way with Thee
T:Public Domain
T:Public Domain
T:Public Domain
C:Cyrus Silvester Nusbaum, 1898
Z:Public Domain
%%score ( 1 2 ) ( 3 4 )
L:1/8
M:4/4
K:G
V:1 treble 
V:2 treble 
V:3 bass 
V:4 bass 
V:1
 D>[DG] [DG]>[DA] [GB]>[GB] [GB]>[GB] | [GB]>[FA] [FA]>[GB] [Ac]4 | D>[DF] [FA]>[GB] [Ac]3 [Ac] | %3
w: 1.~Would you live for Je- sus, and be|ways pure and good? Would|you walk with Him with- in|
w: 2.~Would you have Him make you free, and|low at His call? Would|you know the peace that comes|
w: 3.~Would you in His king- dom find a|of con- stant rest? Would|you prove Him true in pro-|
 [Ac]>[GB] [GB]>[Ac] [Bd]4 | D>[DG] [DG]>[DA] [GB]>[GB] [GB]>[GB] | [EB]>[EA] [EA]>[EB] [Ec]4 | %6
w: nar- row road? Would you|have Him bear your bur- den, car- ry|your load? Let Him have|
w: giv- ing all? Would you|have Him save you, so that you can|ver fall? Let Him have|
w: den- tial test? Would you|in His ser- vice la- bor al- ways|your best? Let Him have|
 D>D D>[Dc] (DG) [FA]2 | G6 ||"^Refrain" [Gd]2 | %9
w: His way with thee. * * *|||
w: His way with thee. * * *|||
w: His way with thee. * * *|||
 [Fd]3 [FA] [Fd]>[Fd] [FA]>[Ac] [Ac]2 [GB]2 [GB]2 [Gd]2 | [Fd]3 [FA] [Fd]>[Fd] [FA]>[Ac] | %11
w: ||
w: ||
w: ||
 [Ac]2 [GB]2 [GB]2 D2 | [DG]3 [DG] [FA]>[GB] [GB]>[=FG] | [EG]2 [Ec]2 [Ec]2 [CE]2 | %14
w: |||
w: |||
w: |||
 [B,D]3 [B,D] [DG]>[DA] [GB]>[Gc] | [GB]2 [FA]2 [DG]4 |] %16
w: ||
w: ||
w: ||
V:2
 D3/2 x13/2 | x8 | D3/2 x13/2 | x8 | D3/2 x13/2 | x8 | D>D D3/2 B2 x5/2 | x6 || x2 | x16 | x8 | %11
w: al-||the||all|||||||
w: fol-||by||ne-|||||||
w: place||vi-||at|||||||
 x8 | x8 | x8 | x8 | x8 |] %16
w: |||||
w: |||||
w: |||||
V:3
 [G,B,]>[G,B,] [G,B,]>[G,C] [G,D]>[G,D] [G,D]>[G,D] | [D,D]>[D,D] [D,D]>[D,D] [D,D]4 | %2
w: ~ ~ ~ ~ ~ ~ ~ ~|~ ~ ~ ~ ~|
 [D,F,]>[D,A,] [D,D]>[D,D] [D,D]3 [D,D] | [G,D]>[G,D] [G,D]>[G,D] [G,D]4 | %4
w: ~ ~ ~ ~ ~ ~|~ ~ ~ ~ ~|
 [G,B,]>[G,B,] [G,B,]>[G,C] [G,D]>[G,D] [G,D]>[G,D] | [C,C]>[C,C] [C,C]>[B,,^G,] [A,,A,]4 | %6
w: ~ ~ ~ ~ ~ ~ ~ ~|~ ~ ~ ~ ~|
 [D,F,]>[D,F,] [D,F,]>[D,A,] (G,D) [D,C]2 | [G,B,]6 || [G,B,]2 | %9
w: ~ ~ ~ ~ ~ * ~|His|power|
 [D,A,]3 [D,D] [D,A,]>[D,A,] [D,D]>[D,D] [G,D]2 [G,D]2 [G,D]2 [G,B,]2 | %10
w: can make you what you ought to be; His blood|
 [D,A,]3 [D,D] [D,A,]>[D,A,] [D,D]>[D,D] | [G,D]2 [G,D]2 [G,D]2 [G,B,]2 | %12
w: can cleanse your heart and make|you free; His love|
 [G,B,]3 [G,B,] [D,D]>[G,D] [G,D]>[G,B,] | [C,C]2 [C,G,]2 [C,G,]2 [C,G,]2 | %14
w: can fill your soul, and you|will see ’Twas best|
 [D,G,]3 [D,G,] [D,B,]>[D,C] [D,D]>[D,E] | [D,D]2 [D,C]2 [G,,G,B,]4 |] %16
w: for Him to have His way|with thee. *|
V:4
 x8 | x8 | x8 | x8 | x8 | x8 | x4 D,2 x2 | x6 || x2 | x16 | x8 | x8 | x8 | x8 | x8 | x8 |] %16
w: ||||||~||||||||||

